packages/sources/icons/src/vitamix/android-line.svg

<svg width="16" height="16" viewBox="0 0 16 16" fill="none" xmlns="http://www.w3.org/2000/svg">
<path fill-rule="evenodd" clip-rule="evenodd" d="M8 1.33332C6.63854 1.33115 5.31716 1.79403 4.25467 2.64532V2.64599L3.286 1.67732L2.34333 2.61999L3.312 3.58799C2.49067 4.61465 2 5.91665 2 7.33332V14C2 14.3682 2.29848 14.6667 2.66667 14.6667H13.3333C13.7015 14.6667 14 14.3682 14 14V7.33332C14.0022 5.97185 13.5393 4.65048 12.688 3.58799L13.6567 2.61932L12.714 1.67665L11.7453 2.64532C10.7187 1.82399 9.41667 1.33332 8 1.33332ZM12.6667 7.33332C12.6667 4.75599 10.5773 2.66666 8 2.66666C5.42267 2.66666 3.33333 4.75599 3.33333 7.33332H12.6667ZM3.33333 8.66666V13.3333H12.6667V8.66666H3.33333ZM6 5.99999C5.63181 5.99999 5.33333 5.70151 5.33333 5.33332C5.33333 4.96513 5.63181 4.66666 6 4.66666C6.36819 4.66666 6.66667 4.96513 6.66667 5.33332C6.66667 5.70151 6.36819 5.99999 6 5.99999ZM9.33333 5.33332C9.33333 5.70151 9.63181 5.99999 10 5.99999C10.3682 5.99999 10.6667 5.70151 10.6667 5.33332C10.6667 4.96513 10.3682 4.66666 10 4.66666C9.63181 4.66666 9.33333 4.96513 9.33333 5.33332Z" fill="#001018"/>
</svg>

<svg width="16" height="16" fill="none" xmlns="http://www.w3.org/2000/svg"><path fill-rule="evenodd" clip-rule="evenodd" d="M8 1.333a5.975 5.975 0 0 0-3.745 1.312v.001l-.969-.969-.943.943.969.968A5.974 5.974 0 0 0 2 7.333V14c0 .368.298.667.667.667h10.666A.667.667 0 0 0 14 14V7.333a5.974 5.974 0 0 0-1.312-3.745l.969-.969-.943-.942-.969.968A5.974 5.974 0 0 0 8 1.333zm4.667 6a4.667 4.667 0 0 0-9.334 0h9.334zM3.333 8.667v4.666h9.334V8.667H3.333zM6 6a.667.667 0 1 1 0-1.333A.667.667 0 0 1 6 6zm3.333-.667a.667.667 0 1 0 1.334 0 .667.667 0 0 0-1.334 0z" fill="#001018"/></svg>
